img/google.svg

<svg width="56" height="19" viewBox="0 0 56 19" fill="none" xmlns="http://www.w3.org/2000/svg">
<g clip-path="url(#clip0_323_37)">
<path d="M6.89673 0.00317383H7.39401C9.12329 0.0412539 10.8235 0.735655 12.0443 1.96766C11.594 2.4291 11.1326 2.87038 10.6913 3.32958C10.0058 2.7091 9.17929 2.22974 8.27657 2.06174C6.94153 1.7795 5.50569 2.03262 4.38569 2.79422C3.16489 3.5939 2.33833 4.94686 2.15913 6.3939C1.96201 7.82302 2.36521 9.32607 3.29705 10.4349C4.18857 11.5145 5.55273 12.191 6.96169 12.2381C8.27657 12.3142 9.64969 11.9088 10.6084 10.9881C11.3611 10.3408 11.7083 9.35295 11.8203 8.39423C10.2612 8.39423 8.69993 8.40319 7.14089 8.39423V6.45886H13.7086C14.0468 8.53535 13.5585 10.8739 11.9793 12.359C10.9265 13.4118 9.47049 14.0323 7.98537 14.1533C6.54729 14.2944 5.06217 14.0211 3.78537 13.3267C2.25321 12.5091 1.03241 11.127 0.432091 9.50303C-0.132389 8.00895 -0.141349 6.31774 0.385051 4.81246C0.864411 3.44158 1.78505 2.22974 2.97001 1.38302C4.10569 0.547495 5.48777 0.0860539 6.89673 0.00317383Z" fill="#3780FF"/>
<path d="M44.5738 0.49054H46.5853V13.9082C45.9178 13.9082 45.2413 13.9171 44.5738 13.8992C44.585 9.43487 44.5738 4.96159 44.5738 0.49054Z" fill="#38B137"/>
<path d="M18.1821 5.14079C19.4208 4.90559 20.7648 5.16991 21.7884 5.91134C22.718 6.5699 23.3676 7.60254 23.5647 8.72926C23.8179 10.0352 23.4998 11.4643 22.6531 12.4969C21.7414 13.6528 20.2473 14.2732 18.7914 14.1792C17.4563 14.103 16.1616 13.4377 15.3709 12.3468C14.4794 11.144 14.2621 9.49086 14.7504 8.0819C15.241 6.5699 16.6208 5.41407 18.1821 5.14079ZM18.4621 6.92606C17.9536 7.05822 17.4854 7.34942 17.1472 7.76158C16.2355 8.85246 16.2915 10.6265 17.2973 11.6413C17.8707 12.2236 18.7354 12.4969 19.5328 12.3356C20.2742 12.2035 20.9238 11.7062 21.28 11.0477C21.9004 9.92989 21.7212 8.38878 20.7715 7.51518C20.1645 6.95518 19.2707 6.71998 18.4621 6.92606Z" fill="#FA3913"/>
<path d="M28.1411 5.14077C29.559 4.86749 31.1113 5.26397 32.1708 6.25853C33.9001 7.80861 34.0883 10.7116 32.6121 12.4969C31.7206 13.6236 30.2736 14.2441 28.8445 14.1792C27.4825 14.1411 26.1386 13.4646 25.3299 12.3468C24.4182 11.1171 24.2211 9.42365 24.7386 7.98781C25.256 6.52285 26.6089 5.40509 28.1411 5.14077ZM28.4233 6.92605C27.9149 7.05821 27.4467 7.34941 27.1085 7.75261C26.2057 8.82333 26.2438 10.5705 27.2115 11.5964C27.7849 12.208 28.6765 12.5081 29.503 12.3379C30.2355 12.1968 30.894 11.7084 31.2502 11.0499C31.8617 9.92317 31.6825 8.38205 30.7238 7.50845C30.1145 6.94621 29.2208 6.71997 28.4233 6.92605Z" fill="#FCBD06"/>
<path d="M36.5882 5.68512C37.6679 5.00864 39.1059 4.82048 40.2707 5.40288C40.6381 5.56192 40.9383 5.8352 41.2295 6.10848C41.2384 5.85536 41.2295 5.59104 41.2384 5.32896C41.8679 5.33792 42.4973 5.32896 43.1357 5.33792V13.6259C43.1268 14.8758 42.8064 16.1997 41.906 17.1113C40.9203 18.1171 39.4061 18.4262 38.0442 18.2201C36.5882 18.0051 35.3203 16.9433 34.7558 15.5993C35.3203 15.3261 35.9117 15.111 36.4941 14.8579C36.8234 15.6285 37.4909 16.287 38.3264 16.4371C39.1619 16.5872 40.1296 16.3811 40.6762 15.6845C41.2586 14.9699 41.2586 13.9933 41.2295 13.1197C40.7971 13.543 40.2999 13.9193 39.6973 14.0582C38.3914 14.4256 36.9533 13.9731 35.9475 13.0905C34.9328 12.208 34.3325 10.8438 34.3885 9.49087C34.4176 7.96095 35.2822 6.4848 36.5882 5.68512ZM38.5325 6.888C37.9591 6.98208 37.4237 7.3024 37.0563 7.74368C36.1738 8.79647 36.1738 10.4787 37.0653 11.5113C37.5738 12.1229 38.3891 12.4611 39.1799 12.376C39.9213 12.2998 40.609 11.8317 40.9741 11.1821C41.5946 10.0822 41.4915 8.58815 40.6538 7.62944C40.1386 7.04032 39.312 6.74688 38.5325 6.888Z" fill="#3780FF"/>
<path d="M49 6.16451C50.1267 5.11171 51.865 4.75555 53.312 5.30883C54.6829 5.82627 55.5587 7.13219 56 8.47619C53.9616 9.32291 51.9322 10.1584 49.8915 11.0029C50.1738 11.5383 50.6061 12.0266 51.1885 12.2237C52.0061 12.5149 52.9827 12.4119 53.6681 11.8675C53.9414 11.6615 54.1565 11.3882 54.3625 11.1261C54.88 11.4733 55.3952 11.8115 55.9126 12.1587C55.1801 13.2586 53.9481 14.0291 52.6243 14.1501C51.1594 14.3293 49.5981 13.7648 48.6506 12.6179C47.0915 10.817 47.2438 7.79075 49 6.16451ZM50.0058 7.90275C49.6854 8.36419 49.5555 8.92643 49.5645 9.48195C50.9264 8.91747 52.2883 8.35523 53.6525 7.78179C53.4262 7.25539 52.8819 6.93507 52.3286 6.85219C51.4326 6.69091 50.503 7.17027 50.0058 7.90275Z" fill="#FA3913"/>
</g>
<defs>
<clipPath id="clip0_323_37">
<rect width="56" height="18.2784" fill="white"/>
</clipPath>
</defs>
</svg>

<svg width="56" height="19" fill="none" xmlns="http://www.w3.org/2000/svg"><g clip-path="url(#a)"><path d="M6.897.003h.497c1.73.038 3.43.733 4.65 1.965-.45.461-.911.902-1.353 1.362-.685-.62-1.512-1.1-2.414-1.268-1.335-.282-2.771-.03-3.891.732-1.221.8-2.048 2.153-2.227 3.6-.197 1.429.206 2.932 1.138 4.04a5.031 5.031 0 0 0 3.665 1.804c1.315.076 2.688-.33 3.646-1.25.753-.647 1.1-1.635 1.212-2.594-1.559 0-3.12.01-4.68 0V6.46h6.569c.338 2.076-.15 4.415-1.73 5.9-1.052 1.053-2.509 1.673-3.994 1.794-1.438.141-2.923-.132-4.2-.826A7.228 7.228 0 0 1 .432 9.503a6.928 6.928 0 0 1-.047-4.69 7.159 7.159 0 0 1 2.585-3.43C4.106.547 5.488.086 6.897.003Z" fill="#3780FF"/><path d="M44.574.49h2.011v13.418c-.667 0-1.344.01-2.011-.009.011-4.464 0-8.937 0-13.408Z" fill="#38B137"/><path d="M18.182 5.14c1.239-.234 2.583.03 3.606.771a4.418 4.418 0 0 1 1.777 2.818c.253 1.306-.065 2.735-.912 3.768-.912 1.156-2.406 1.776-3.862 1.682-1.335-.076-2.63-.741-3.42-1.832-.892-1.203-1.109-2.856-.62-4.265.49-1.512 1.87-2.668 3.431-2.941Zm.28 1.786a2.53 2.53 0 0 0-1.315.836c-.912 1.09-.855 2.865.15 3.88a2.498 2.498 0 0 0 2.236.694c.741-.133 1.39-.63 1.747-1.288.62-1.118.441-2.66-.509-3.533a2.539 2.539 0 0 0-2.309-.589Z" fill="#FA3913"/><path d="M28.141 5.14c1.418-.273 2.97.124 4.03 1.119 1.73 1.55 1.917 4.453.441 6.238-.891 1.127-2.338 1.747-3.768 1.682-1.361-.038-2.705-.714-3.514-1.832-.912-1.23-1.109-2.923-.591-4.36.517-1.464 1.87-2.582 3.402-2.846Zm.282 1.786a2.572 2.572 0 0 0-1.314.827c-.903 1.07-.865 2.817.102 3.843.574.612 1.466.912 2.292.742a2.575 2.575 0 0 0 1.747-1.288c.612-1.127.433-2.668-.526-3.542a2.521 2.521 0 0 0-2.3-.582Z" fill="#FCBD06"/><path d="M36.588 5.685c1.08-.676 2.518-.865 3.683-.282.367.159.667.432.959.705.008-.253 0-.517.008-.779.63.009 1.26 0 1.898.009v8.288c-.01 1.25-.33 2.574-1.23 3.485-.986 1.006-2.5 1.315-3.862 1.11-1.456-.216-2.724-1.278-3.288-2.622.564-.273 1.156-.488 1.738-.741.33.77.997 1.429 1.832 1.58.836.15 1.804-.057 2.35-.753.583-.715.583-1.692.553-2.565-.432.423-.93.8-1.532.938-1.306.368-2.744-.085-3.75-.967a4.605 4.605 0 0 1-1.559-3.6c.03-1.53.894-3.006 2.2-3.806Zm1.944 1.203a2.48 2.48 0 0 0-1.476.856c-.882 1.052-.882 2.735.01 3.767.508.612 1.323.95 2.114.865.741-.076 1.429-.544 1.794-1.194.62-1.1.518-2.594-.32-3.553a2.313 2.313 0 0 0-2.122-.741Z" fill="#3780FF"/><path d="M49 6.165c1.127-1.053 2.865-1.41 4.312-.856 1.37.517 2.247 1.823 2.688 3.167-2.038.847-4.068 1.682-6.108 2.527.282.535.714 1.024 1.296 1.22.818.292 1.795.189 2.48-.356.273-.206.489-.479.694-.74.518.346 1.033.684 1.55 1.032-.732 1.1-1.964 1.87-3.288 1.991-1.465.18-3.026-.385-3.973-1.532-1.56-1.801-1.407-4.827.349-6.453Zm1.006 1.738c-.32.461-.45 1.023-.441 1.579 1.361-.565 2.723-1.127 4.088-1.7-.227-.527-.771-.847-1.324-.93-.896-.161-1.826.318-2.323 1.05Z" fill="#FA3913"/></g><defs><clipPath id="a"><path fill="#fff" d="M0 0h56v18.278H0z"/></clipPath></defs></svg>
